public/img/step-5.svg

<svg width="64" height="64" viewBox="0 0 64 64" fill="none" xmlns="http://www.w3.org/2000/svg">
<path d="M61.874 20.9393L36.362 8.47651C34.1627 7.37685 30.4238 7.37685 28.2245 8.47651L2.126 20.9393C0.293242 21.819 0 23.0653 0 23.7251C0 24.3849 0.293242 25.5578 2.126 26.5109L4.252 27.5372V39.2669C2.93242 39.7801 1.97938 41.0996 1.97938 42.5659C1.97938 44.0321 2.93242 45.3517 4.17869 45.8648L0.879725 56.3482H10.1168L6.81787 45.8648C8.13746 45.3517 9.01718 44.0321 9.01718 42.5659C9.01718 41.0263 8.06415 39.7801 6.74456 39.2669V28.7835L10.63 30.6896V45.9381C10.63 46.1581 10.7033 46.378 10.8499 46.5979C11.2165 47.0378 18.0344 56.3482 31.9633 56.3482C45.8923 56.3482 52.7102 46.9645 53.0034 46.5979C53.1501 46.378 53.2234 46.1581 53.2234 45.9381V30.7629L61.874 26.5109C63.7068 25.6311 64 24.3849 64 23.7251C63.9267 23.0653 63.7068 21.819 61.874 20.9393ZM50.8774 45.5716C49.7045 47.0378 43.3998 54.0756 31.9633 54.0756C20.5269 54.0756 14.2222 47.0378 13.0493 45.5716V31.7159L28.2245 38.9736C29.3242 39.4868 30.7904 39.7801 32.2566 39.7801C33.7961 39.7801 35.2623 39.4868 36.362 38.9003L50.8774 31.7892V45.5716ZM60.8476 24.4582L52.0504 28.7835C51.6838 28.7835 51.3906 28.9301 51.244 29.2234L35.3356 36.921C33.7961 37.7274 30.7904 37.7274 29.1775 36.921L9.60367 27.5372L32.11 24.898C32.7698 24.8247 33.2096 24.2382 33.1363 23.6518C33.063 22.992 32.4765 22.5521 31.89 22.6254L5.79152 25.7045L3.15235 24.4582C2.49255 24.1649 2.34593 23.7984 2.34593 23.7984C2.34593 23.7251 2.49255 23.4318 3.15235 23.1386L29.2509 10.6025C30.0573 10.236 31.1569 10.016 32.2566 10.016C33.4296 10.016 34.6025 10.236 35.3356 10.6025L60.8476 23.0653C61.5074 23.3585 61.6541 23.6518 61.6541 23.7984C61.6541 23.7984 61.4341 24.1649 60.8476 24.4582Z" fill="#2474B7"/>
</svg>

<svg width="64" height="64" fill="none" xmlns="http://www.w3.org/2000/svg"><path d="M61.874 20.94L36.362 8.476c-2.2-1.1-5.938-1.1-8.138 0L2.127 20.939C.293 21.82 0 23.065 0 23.725c0 .66.293 1.833 2.126 2.786l2.126 1.026v11.73c-1.32.513-2.273 1.833-2.273 3.299s.953 2.786 2.2 3.299l-3.3 10.483h9.238l-3.3-10.483c1.32-.513 2.2-1.833 2.2-3.3 0-1.539-.953-2.785-2.272-3.298V28.783l3.885 1.907v15.248c0 .22.073.44.22.66.367.44 7.184 9.75 21.113 9.75 13.93 0 20.747-9.383 21.04-9.75.147-.22.22-.44.22-.66V30.763l8.651-4.252C63.707 25.63 64 24.385 64 23.725c-.073-.66-.293-1.906-2.126-2.786zM50.877 45.571c-1.172 1.466-7.477 8.504-18.914 8.504-11.436 0-17.74-7.038-18.914-8.504V31.716l15.175 7.258c1.1.513 2.566.806 4.033.806 1.54 0 3.005-.293 4.105-.88l14.515-7.11v13.782zm9.97-21.114l-8.797 4.326c-.366 0-.66.146-.806.44L35.336 36.92c-1.54.806-4.546.806-6.159 0L9.604 27.537l22.506-2.639c.66-.073 1.1-.66 1.026-1.246-.073-.66-.66-1.1-1.246-1.027l-26.098 3.08-2.64-1.247c-.66-.293-.806-.66-.806-.66 0-.073.147-.366.806-.66l26.099-12.536c.806-.366 1.906-.586 3.006-.586 1.173 0 2.346.22 3.079.586l25.512 12.463c.66.293.806.587.806.733 0 0-.22.367-.806.66z" fill="#2474B7"/></svg>
